dist/img/icons/plus.svg

<?xml version="1.0" encoding="UTF-8"?>
<svg width="17px" height="17px" viewBox="0 0 17 17" version="1.1" xmlns="http://www.w3.org/2000/svg" xmlns:xlink="http://www.w3.org/1999/xlink">
    <!-- Generator: sketchtool 54.1 (76490) - https://sketchapp.com -->
    <title>69E7A070-1A2D-4F16-807B-D4ABA30EA9F6</title>
    <desc>Created with sketchtool.</desc>
    <defs>
        <path d="M8.35714286,5.14285714 L5.14285714,5.14285714 L5.14285714,8.35714286 C5.14285714,8.71071429 4.85357143,9 4.5,9 C4.14642857,9 3.85714286,8.71071429 3.85714286,8.35714286 L3.85714286,5.14285714 L0.642857143,5.14285714 C0.289285714,5.14285714 0,4.85357143 0,4.5 C0,4.14642857 0.289285714,3.85714286 0.642857143,3.85714286 L3.85714286,3.85714286 L3.85714286,0.642857143 C3.85714286,0.289285714 4.14642857,0 4.5,0 C4.85357143,0 5.14285714,0.289285714 5.14285714,0.642857143 L5.14285714,3.85714286 L8.35714286,3.85714286 C8.71071429,3.85714286 9,4.14642857 9,4.5 C9,4.85357143 8.71071429,5.14285714 8.35714286,5.14285714 Z" id="path-1"></path>
    </defs>
    <g id="kits" stroke="none" stroke-width="1" fill="none" fill-rule="evenodd">
        <g id="Styleguide----UI-kits-(update)" transform="translate(-2850.000000, -943.000000)">
            <g id="Group-12" transform="translate(2850.000000, 943.000000)">
                <circle id="Oval" fill="#354052" cx="8.5" cy="8.5" r="8.5"></circle>
                <g id="↳-🎨Color" transform="translate(4.000000, 4.000000)">
                    <mask id="mask-2" fill="white">
                        <use xlink:href="#path-1"></use>
                    </mask>
                    <use id="Mask" fill="#000000" fill-rule="nonzero" xlink:href="#path-1"></use>
                    <g id="UI/Color/Flat/White-(Default)" mask="url(#mask-2)" fill="#FFFFFF">
                        <g transform="translate(-7.000000, -4.000000)" id="Base">
                            <rect x="0" y="0" width="16" height="16"></rect>
                        </g>
                    </g>
                </g>
            </g>
        </g>
    </g>
</svg>

<svg xmlns="http://www.w3.org/2000/svg" xmlns:xlink="http://www.w3.org/1999/xlink" width="17" height="17" viewBox="0 0 17 17">
    <defs>
        <path id="a" d="M8.357 5.143H5.143v3.214c0 .354-.29.643-.643.643a.645.645 0 0 1-.643-.643V5.143H.643A.645.645 0 0 1 0 4.5c0-.354.29-.643.643-.643h3.214V.643c0-.354.29-.643.643-.643.354 0 .643.29.643.643v3.214h3.214c.354 0 .643.29.643.643 0 .354-.29.643-.643.643z"/>
    </defs>
    <g fill="none" fill-rule="evenodd">
        <circle cx="8.5" cy="8.5" r="8.5" fill="#354052"/>
        <use fill="#FFF" fill-rule="nonzero" transform="translate(4 4)" xlink:href="#a"/>
    </g>
</svg>
